icons/jsdom.svg

<?xml version="1.0" encoding="UTF-8"?>
<svg width="256px" height="287px" viewBox="0 0 256 287" version="1.1" xmlns="http://www.w3.org/2000/svg" xmlns:xlink="http://www.w3.org/1999/xlink" preserveAspectRatio="xMidYMid">
		<g>
				<path d="M240.402682,225.914838 L143.286367,281.955728 C133.786086,287.677955 121.900475,287.677955 112.400194,281.955728 L15.2838791,225.914838 C5.73145467,220.183384 0,209.994131 0,199.16805 L0,87.0862696 C0,75.9417744 5.73145467,66.0709358 15.2838791,60.3394811 L112.400194,4.298591 C121.952619,-1.43286367 133.415528,-1.43286367 143.286367,4.298591 L240.402682,60.3394811 C249.955106,66.0709358 255.686561,76.2601885 255.686561,87.0862696 L255.686561,199.16805 C255.995289,210.240465 250.098732,220.559439 240.402682,225.914838 Z" fill="#DBC01D"></path>
				<path d="M106.980686,54.6065348 C106.980686,54.6065348 107.2991,72.7561413 99.9755748,93.771475 C94.8809484,108.73694 87.8758371,116.37888 71.3183014,133.573244 C63.3579477,141.533597 41.0689574,161.275274 24.1930075,182.609022 C16.3727873,192.188499 9.54496841,202.536912 3.814502,213.495195 C3.814502,213.495195 6.68022934,220.81872 15.5958255,226.231761 L39.1584725,239.923569 L49.9845535,222.092377 C54.7607657,214.768851 62.7211194,204.898013 62.7211194,204.898013 L88.1942513,243.744539 L124.811878,219.226649 L93.925706,173.056598 C93.925706,173.056598 108.572757,159.046375 112.393727,154.588577 L122.582979,142.807254 C122.582979,142.807254 138.185273,152.041264 144.235141,156.180648 C153.150738,161.912103 164.613647,171.146113 164.613647,171.146113 L132.453818,219.226649 L169.071445,243.744539 L195.818233,203.94277 L210.783698,225.594932 C214.286254,231.007973 218.107224,238.968327 218.107224,238.968327 L240.396214,226.231761 C249.630224,220.81872 253.13278,211.903124 253.13278,211.903124 C253.13278,211.903124 243.261942,194.071932 234.346345,182.290608 C225.112335,169.872456 212.057355,155.862234 206.007486,149.493951 C195.181405,138.986284 176.39497,124.339233 166.842546,117.97095 C158.245364,112.239496 142.961485,103.960728 142.961485,103.960728 C142.961485,103.960728 146.46404,94.0898892 148.692939,79.4428384 C149.966596,70.5272422 150.603424,55.5617772 150.603424,55.5617772 L106.980686,54.6065348 Z" fill="#383307"></path>
		</g>
</svg>

<svg xmlns="http://www.w3.org/2000/svg" viewBox="0 0 255.698 286.247">
  <path fill="#dbc01d" d="m240.403 225.915-97.117 56.04a29.931 29.931 0 0 1-30.886 0l-97.116-56.04C5.73 220.183 0 209.995 0 199.168V87.086C0 75.942 5.731 66.071 15.284 60.34L112.4 4.3c9.553-5.732 21.016-5.732 30.886 0l97.117 56.04c9.552 5.732 15.284 15.921 15.284 26.747v112.082a29.613 29.613 0 0 1-15.284 26.747z"/>
  <path fill="#383307" d="M106.98 54.607s.32 18.15-7.004 39.164c-5.095 14.966-12.1 22.608-28.658 39.802-7.96 7.96-30.249 27.702-47.125 49.036a182.77 182.77 0 0 0-20.378 30.886s2.865 7.324 11.78 12.737l23.563 13.692 10.827-17.832c4.776-7.323 12.736-17.194 12.736-17.194l25.473 38.847 36.618-24.518-30.886-46.17s14.647-14.01 18.468-18.468l10.189-11.782s15.602 9.234 21.652 13.374c8.916 5.731 20.379 14.965 20.379 14.965l-32.16 48.08 36.617 24.519 26.747-39.802 14.966 21.652c3.502 5.413 7.323 13.373 7.323 13.373l22.29-12.736c9.233-5.413 12.736-14.329 12.736-14.329s-9.871-17.831-18.787-29.612c-9.234-12.419-22.289-26.429-28.339-32.797-10.826-10.508-29.612-25.155-39.164-31.523-8.598-5.731-23.882-14.01-23.882-14.01s3.503-9.871 5.732-24.518c1.274-8.916 1.91-23.881 1.91-23.881z"/>
</svg>
